X: 1459
T: Nev`eser Seyir
C: Şefik Gürmeriç
O: Turkey
F: http://compmusic.upf.edu/node/140
N: neveser--seyir--sofyan--1--sefik_gurmeric
N: makam= neveser
N: form= seyir
N: usul= sofyan = 4/4
M: 4/4
L: 1/16
K: C _7/8B _7/8e ^f ^c
Q: 1/4=60
%%MIDI tuningsystem comma53
G4 d2e2 d4 c4  | B3A G2F2 G8  | z4 d2g2 f4 e4  | \
w:   |   |   | 
d3c B2c2 d8  | z2d4e2 f2g2 a2_b2  | 
w:   |   | 
a2g2 g2f2 g8  | z4 a2_b2 a2g2 g2f2  | \
w:   |   | 
f3e feed d8  | z2g4f2 e3d c4  | 
w:   |   | 
z2e2 d2c2 dcBA B4  | z2A4c2 B2A2 G2F2  | \
w:   |   | 
G6D2 E2F2 G4  | 
w:   | 
|


